svg/icon/cenz.svg

<svg height="32" viewBox="0 0 32 32" width="32" xmlns="http://www.w3.org/2000/svg" xmlns:xlink="http://www.w3.org/1999/xlink"><defs><linearGradient id="a" x1="50%" x2="50%" y1="0%" y2="100%"><stop offset="0" stop-color="#fff" stop-opacity=".5"/><stop offset="1" stop-opacity=".5"/></linearGradient><circle id="b" cx="16" cy="15" r="15"/><filter id="c" height="111.7%" width="111.7%" x="-5.8%" y="-4.2%"><feOffset dy=".5" in="SourceAlpha" result="shadowOffsetOuter1"/><feGaussianBlur in="shadowOffsetOuter1" result="shadowBlurOuter1" stdDeviation=".5"/><feComposite in="shadowBlurOuter1" in2="SourceAlpha" operator="out" result="shadowBlurOuter1"/><feColorMatrix in="shadowBlurOuter1" values="0 0 0 0 0   0 0 0 0 0   0 0 0 0 0  0 0 0 0.199473505 0"/></filter><path id="d" d="m21.6269746 16.8776727c-.4223952.3634504-.8004157.6860955-1.1739334 1.013804-.0419781.0367099-.0836656.102758-.0842466.1557006-.0056649.6374717-.003704 1.2749433-.003704 1.9352004.961138-.4060429 1.4630592-1.639734 1.261884-3.104705zm-1.1575925-3.8968348c1.0710218-.6382162 1.1979728-.8586246 1.2014589-2.1250792.0002905-.0993327.0028323-.1986653-.0010169-.2977747-.0456093-1.16332423-.8415948-2.19001023-1.943628-2.4356613-.9897529-.2205573-1.9882934-.40328774-2.9877782-.57276391-.5092564-.08645071-1.0309319-.16061515-1.5438923-.14363775-.6205927.02062606-1.1270894.34595178-1.5941498.87813374 1.1314469.21110058 2.1827142.42771137 3.2408811.59971924 1.4528189.23619437 2.561679.96480787 3.1676012 2.35412518.2349464.5386602.3094611 1.150889.460524 1.7429387zm-8.823601-3.007904c-.8596789.5344158-1.2841077 1.2578914-1.2967447 2.1585127-.0341344 2.4295554-.0265812 4.85993-.0069721 7.2897833.0095141 1.1770253.7866167 2.1860637 1.9087675 2.4594893.9609201.2341839 1.9425386.3782684 2.9142075.5667325.615872.1195119 1.2261518.3011255 1.8620686.1431165.5202957-.1294155.9843059-.3483346 1.3495441-.862869-1.1657993-.2185468-2.2610781-.4587622-3.3670333-.6232493-1.8925717-.2815419-3.3608599-1.958507-3.3631114-3.910387-.0026871-2.2316347-.0007262-4.4631949-.0007262-6.6948296zm1.3384322-.35123859c-.0124918.24728922-.0297768.43135999-.029922.61535629-.0018158 2.245857-.0039219 4.491714-.000218 6.737571.0024693 1.4764382.8945396 2.5364833 2.3120619 2.7846661 1.0236694.1792307 2.0439979.3792365 3.0659242.5690408.0711012.0132543.1432919.0209983.2152647.0289658.4851444.0539852.5014128.0446029.5046809-.4417102.0050839-.744474-.0196091-1.4899904.0146706-2.2327517.0101677-.2200361.1216492-.4967379.2798295-.637695.8116003-.7231033 1.653994-1.4100179 2.4849854-2.1103357.225723-.1901766.4577643-.3193687.7611975-.172827.3216625.1554773.4056185.4233182.4007526.7609301-.0121287.8434344.0058827 1.6876134-.0209165 2.5303775-.0481512 1.5214134-1.1520727 3.020637-2.5687963 3.4998763-.2580416.0873442-.4223952.2252484-.5603853.4701549-.872897 1.5503792-2.3688558 2.1476412-3.9723018 1.9352003-1.3143929-.1740928-2.6176739-.4517627-3.9164521-.7296559-1.6716422-.3577913-2.90636388-1.9142765-2.9330904-3.7759825-.0360227-2.5054326-.02462036-5.0124288.01815661-7.5178613.02665389-1.5663886 1.19056479-3.01907337 2.66655149-3.49920619.1515713-.04929403.3126567-.18488985.3940709-.3261448.9905517-1.71777047 2.597629-2.41473747 4.5083573-1.98687717 1.061072.23768362 2.1393564.39323533 3.2050764.61036735 1.8919907.38541679 3.1561261 1.94800785 3.1812548 3.91433351.0071174.5581693.0110393 1.1175299-.0191734 1.6742845-.0096593.1776669-.0880231.4035855-.2133037.5140131-.9073944.7998738-1.8253197 1.5884294-2.7661949 2.3460832-.1456886.1172781-.4696751.1436377-.6319225.0566658-.1589065-.0850359-.2929749-.3640461-.3046678-.5660623-.0386372-.6675544.0354417-1.3441932-.0297041-2.0074288-.1305098-1.3290028-1.0349265-2.2069876-2.3988506-2.4340976-1.0840218-.1804966-2.1659375-.37461976-3.2490879-.56099887-.116057-.01995588-.2340023-.0287424-.3978475-.04825152z"/><filter id="e" height="119.4%" width="125%" x="-12.5%" y="-6.9%"><feOffset dy=".5" in="SourceAlpha" result="shadowOffsetOuter1"/><feGaussianBlur in="shadowOffsetOuter1" result="shadowBlurOuter1" stdDeviation=".5"/><feColorMatrix in="shadowBlurOuter1" values="0 0 0 0 0   0 0 0 0 0   0 0 0 0 0  0 0 0 0.204257246 0"/></filter></defs><g fill="none" fill-rule="evenodd"><use fill="#000" filter="url(#c)" xlink:href="#b"/><use fill="#3089f2" xlink:href="#b"/><use fill="url(#a)" xlink:href="#b"/><circle cx="16" cy="15" r="14.5" stroke="#000" stroke-opacity=".097"/><g fill-rule="nonzero"><use fill="#000" filter="url(#e)" xlink:href="#d"/><use fill="#fff" fill-rule="evenodd" xlink:href="#d"/></g></g></svg>

<svg xmlns="http://www.w3.org/2000/svg" xmlns:xlink="http://www.w3.org/1999/xlink" width="32" height="32" viewBox="0 0 32 32">
  <defs>
    <linearGradient id="cenz-c" x1="50%" x2="50%" y1="0%" y2="100%">
      <stop offset="0%" stop-color="#FFF" stop-opacity=".5"/>
      <stop offset="100%" stop-opacity=".5"/>
    </linearGradient>
    <circle id="cenz-b" cx="16" cy="15" r="15"/>
    <filter id="cenz-a" width="111.7%" height="111.7%" x="-5.8%" y="-4.2%" filterUnits="objectBoundingBox">
      <feOffset dy=".5" in="SourceAlpha" result="shadowOffsetOuter1"/>
      <feGaussianBlur in="shadowOffsetOuter1" result="shadowBlurOuter1" stdDeviation=".5"/>
      <feComposite in="shadowBlurOuter1" in2="SourceAlpha" operator="out" result="shadowBlurOuter1"/>
      <feColorMatrix in="shadowBlurOuter1" values="0 0 0 0 0   0 0 0 0 0   0 0 0 0 0  0 0 0 0.199473505 0"/>
    </filter>
    <path id="cenz-e" d="M21.6269746,16.8776727 C21.2045794,17.2411231 20.8265589,17.5637682 20.4530412,17.8914767 C20.4110631,17.9281866 20.3693756,17.9942347 20.3687946,18.0471773 C20.3631297,18.684649 20.3650906,19.3221206 20.3650906,19.9823777 C21.3262286,19.5763348 21.8281498,18.3426437 21.6269746,16.8776727 Z M20.4693821,12.9808379 C21.5404039,12.3426217 21.6673549,12.1222133 21.670841,10.8557587 C21.6711315,10.756426 21.6736733,10.6570934 21.6698241,10.557984 C21.6242148,9.39465977 20.8282293,8.36797377 19.7261961,8.1223227 C18.7364432,7.9017654 17.7379027,7.71903496 16.7384179,7.54955879 C16.2291615,7.46310808 15.707486,7.38894364 15.1945256,7.40592104 C14.5739329,7.4265471 14.0674362,7.75187282 13.6003758,8.28405478 C14.7318227,8.49515536 15.78309,8.71176615 16.8412569,8.88377402 C18.2940758,9.11996839 19.4029359,9.84858189 20.0088581,11.2378992 C20.2438045,11.7765594 20.3183192,12.3887882 20.4693821,12.9808379 Z M11.6457811,9.9729339 C10.7861022,10.5073497 10.3616734,11.2308253 10.3490364,12.1314466 C10.314902,14.561002 10.3224552,16.9913766 10.3420643,19.4212299 C10.3515784,20.5982552 11.128681,21.6072936 12.2508318,21.8807192 C13.2117519,22.1149031 14.1933704,22.2589876 15.1650393,22.4474517 C15.7809113,22.5669636 16.3911911,22.7485772 17.0271079,22.5905682 C17.5474036,22.4611527 18.0114138,22.2422336 18.376652,21.7276992 C17.2108527,21.5091524 16.1155739,21.268937 15.0096187,21.1044499 C13.117047,20.822908 11.6487588,19.1459429 11.6465073,17.1940629 C11.6438202,14.9624282 11.6457811,12.730868 11.6457811,10.4992333 L11.6457811,9.9729339 Z M12.9842133,9.62169531 C12.9717215,9.86898453 12.9544365,10.0530553 12.9542913,10.2370516 C12.9524755,12.4829086 12.9503694,14.7287656 12.9540733,16.9746226 C12.9565426,18.4510608 13.8486129,19.5111059 15.2661352,19.7592887 C16.2898046,19.9385194 17.3101331,20.1385252 18.3320594,20.3283295 C18.4031606,20.3415838 18.4753513,20.3493278 18.5473241,20.3572953 C19.0324685,20.4112805 19.0487369,20.4018982 19.052005,19.9155851 C19.0570889,19.1711111 19.0323959,18.4255947 19.0666756,17.6828334 C19.0768433,17.4627973 19.1883248,17.1860955 19.3465051,17.0451384 C20.1581054,16.3220351 21.0004991,15.6351205 21.8314905,14.9348027 C22.0572135,14.7446261 22.2892548,14.615434 22.592688,14.7619757 C22.9143505,14.917453 22.9983065,15.1852939 22.9934406,15.5229058 C22.9813119,16.3663402 22.9993233,17.2105192 22.9725241,18.0532833 C22.9243729,19.5746967 21.8204514,21.0739203 20.4037278,21.5531596 C20.1456862,21.6405038 19.9813326,21.778408 19.8433425,22.0233145 C18.9704455,23.5736937 17.4744867,24.1709557 15.8710407,23.9585148 C14.5566478,23.784422 13.2533668,23.5067521 11.9545886,23.2288589 C10.2829464,22.8710676 9.04822472,21.3145824 9.0214982,19.4528764 C8.9854755,16.9474438 8.99687784,14.4404476 9.03965481,11.9350151 C9.0663087,10.3686265 10.2302196,8.91594173 11.7062063,8.43580891 C11.8577776,8.38651488 12.018863,8.25091906 12.1002772,8.10966411 C13.0908289,6.39189364 14.6979062,5.69492664 16.6086345,6.12278694 C17.6697065,6.36047056 18.7479909,6.51602227 19.8137109,6.73315429 C21.7057016,7.11857108 22.969837,8.68116214 22.9949657,10.6474878 C23.0020831,11.2056571 23.006005,11.7650177 22.9757923,12.3217723 C22.966133,12.4994392 22.8877692,12.7253578 22.7624886,12.8357854 C21.8550942,13.6356592 20.9371689,14.4242148 19.9962937,15.1818686 C19.8506051,15.2991467 19.5266186,15.3255063 19.3643712,15.2385344 C19.2054647,15.1534985 19.0713963,14.8744883 19.0597034,14.6724721 C19.0210662,14.0049177 19.0951451,13.3282789 19.0299993,12.6650433 C18.8994895,11.3360405 17.9950728,10.4580557 16.6311487,10.2309457 C15.5471269,10.0504491 14.4652112,9.85632594 13.3820608,9.66994683 C13.2660038,9.64999095 13.1480585,9.64120443 12.9842133,9.62169531 Z"/>
    <filter id="cenz-d" width="125%" height="119.4%" x="-12.5%" y="-6.9%" filterUnits="objectBoundingBox">
      <feOffset dy=".5" in="SourceAlpha" result="shadowOffsetOuter1"/>
      <feGaussianBlur in="shadowOffsetOuter1" result="shadowBlurOuter1" stdDeviation=".5"/>
      <feColorMatrix in="shadowBlurOuter1" values="0 0 0 0 0   0 0 0 0 0   0 0 0 0 0  0 0 0 0.204257246 0"/>
    </filter>
  </defs>
  <g fill="none" fill-rule="evenodd">
    <use fill="#000" filter="url(#cenz-a)" xlink:href="#cenz-b"/>
    <use fill="#3089F2" xlink:href="#cenz-b"/>
    <use fill="url(#cenz-c)" style="mix-blend-mode:soft-light" xlink:href="#cenz-b"/>
    <circle cx="16" cy="15" r="14.5" stroke="#000" stroke-opacity=".097"/>
    <g fill-rule="nonzero">
      <use fill="#000" filter="url(#cenz-d)" xlink:href="#cenz-e"/>
      <use fill="#FFF" fill-rule="evenodd" xlink:href="#cenz-e"/>
    </g>
  </g>
</svg>
